app/img/main-block-image-6.svg

<svg width="64" height="64" viewBox="0 0 64 64" fill="none" xmlns="http://www.w3.org/2000/svg">
<rect width="64" height="64" rx="18" fill="white"/>
<path d="M40.432 25.0068C41.0025 25.5773 41.9267 25.5788 42.4972 25.0068L44.5296 22.9744C45.0993 22.404 45.0977 21.4797 44.5296 20.9085L39.3994 15.7799C38.8305 15.2094 37.9063 15.2094 37.3358 15.7799L35.3026 17.8123C34.7338 18.3828 34.7338 19.307 35.3026 19.8759L40.432 25.0068Z" fill="url(#paint0_linear)"/>
<path d="M28.2859 37.3806C28.8556 37.9487 29.7798 37.9487 30.3495 37.3806L32.3827 35.3466C32.9532 34.7777 32.9532 33.8527 32.3827 33.2823L27.2526 28.1521C26.6829 27.5832 25.7586 27.5817 25.1882 28.1521L23.1558 30.1845C22.5853 30.755 22.5869 31.6792 23.1558 32.2497L28.2859 37.3806Z" fill="url(#paint1_linear)"/>
<path d="M51.5725 37.8683L49.5097 35.8032C48.9377 35.2343 48.0158 35.2343 47.4461 35.8032L46.5413 36.7072L37.8093 27.9735L39.7006 26.0814L34.4536 20.8359L32.5614 22.7281L30.1518 25.1361L28.3018 26.9862L33.548 32.2332L35.4004 30.3839L44.131 39.116L43.3143 39.9335C42.7438 40.5016 42.7422 41.4266 43.3143 41.997L45.3771 44.0606C45.9491 44.6326 46.8725 44.6326 47.4422 44.0606L51.5717 39.9327C52.143 39.3614 52.143 38.4388 51.5725 37.8683Z" fill="url(#paint2_linear)"/>
<path d="M36.3209 44.1412C36.3209 43.2068 35.5634 42.4478 34.6275 42.4478H21.4043C20.4691 42.4478 19.7108 43.2068 19.7108 44.1412V46.8898H15.999V52.6481H39.813V46.8898H36.3209V44.1412Z" fill="url(#paint3_linear)"/>
<defs>
<linearGradient id="paint0_linear" x1="39.9161" y1="15.3521" x2="39.9161" y2="25.4353" gradientUnits="userSpaceOnUse">
<stop stop-color="#EF8080"/>
<stop offset="1" stop-color="#F0145A"/>
</linearGradient>
<linearGradient id="paint1_linear" x1="27.7695" y1="27.7249" x2="27.7695" y2="37.8067" gradientUnits="userSpaceOnUse">
<stop stop-color="#EF8080"/>
<stop offset="1" stop-color="#F0145A"/>
</linearGradient>
<linearGradient id="paint2_linear" x1="40.151" y1="20.8359" x2="40.151" y2="44.4896" gradientUnits="userSpaceOnUse">
<stop stop-color="#EF8080"/>
<stop offset="1" stop-color="#F0145A"/>
</linearGradient>
<linearGradient id="paint3_linear" x1="27.906" y1="42.4478" x2="27.906" y2="52.6481" gradientUnits="userSpaceOnUse">
<stop stop-color="#EF8080"/>
<stop offset="1" stop-color="#F0145A"/>
</linearGradient>
</defs>
</svg>

<svg width="64" height="64" fill="none" xmlns="http://www.w3.org/2000/svg"><rect width="64" height="64" rx="18" fill="#fff"/><path d="M40.432 25.007c.57.57 1.495.572 2.065 0l2.033-2.033c.57-.57.568-1.494 0-2.066L39.4 15.78a1.458 1.458 0 00-2.064 0l-2.033 2.032a1.461 1.461 0 000 2.064l5.129 5.13z" fill="url(#paint0_linear)"/><path d="M28.286 37.38c.57.569 1.494.569 2.063 0l2.034-2.033c.57-.57.57-1.494 0-2.065l-5.13-5.13a1.46 1.46 0 00-2.065 0l-2.032 2.032a1.461 1.461 0 000 2.066l5.13 5.13z" fill="url(#paint1_linear)"/><path d="M51.572 37.868l-2.062-2.065a1.46 1.46 0 00-2.064 0l-.905.904-8.732-8.733 1.892-1.893-5.247-5.245-1.893 1.892-2.41 2.408-1.85 1.85 5.247 5.247 1.852-1.85 8.731 8.733-.817.818a1.456 1.456 0 000 2.063l2.063 2.064a1.457 1.457 0 002.065 0l4.13-4.128a1.458 1.458 0 000-2.065z" fill="url(#paint2_linear)"/><path d="M36.32 44.141c0-.934-.757-1.693-1.693-1.693H21.404c-.935 0-1.693.759-1.693 1.693v2.749h-3.712v5.758h23.814V46.89h-3.492V44.14z" fill="url(#paint3_linear)"/><defs><linearGradient id="paint0_linear" x1="39.916" y1="15.352" x2="39.916" y2="25.435" gradientUnits="userSpaceOnUse"><stop stop-color="#EF8080"/><stop offset="1" stop-color="#F0145A"/></linearGradient><linearGradient id="paint1_linear" x1="27.77" y1="27.725" x2="27.77" y2="37.807" gradientUnits="userSpaceOnUse"><stop stop-color="#EF8080"/><stop offset="1" stop-color="#F0145A"/></linearGradient><linearGradient id="paint2_linear" x1="40.151" y1="20.836" x2="40.151" y2="44.49" gradientUnits="userSpaceOnUse"><stop stop-color="#EF8080"/><stop offset="1" stop-color="#F0145A"/></linearGradient><linearGradient id="paint3_linear" x1="27.906" y1="42.448" x2="27.906" y2="52.648" gradientUnits="userSpaceOnUse"><stop stop-color="#EF8080"/><stop offset="1" stop-color="#F0145A"/></linearGradient></defs></svg>
